app/assets/images/heroicons/mini/document-currency-yen.svg

<svg width="20" height="20" viewBox="0 0 20 20" fill="none" xmlns="http://www.w3.org/2000/svg">
<path fill-rule="evenodd" clip-rule="evenodd" d="M4.5 2C3.67157 2 3 2.67157 3 3.5V16.5C3 17.3284 3.67157 18 4.5 18H15.5C16.3284 18 17 17.3284 17 16.5V7.62132C17 7.2235 16.842 6.84197 16.5607 6.56066L12.4393 2.43934C12.158 2.15804 11.7765 2 11.3787 2H4.5ZM8.34577 6.29445C8.09415 5.96542 7.62345 5.90266 7.29441 6.15427C6.96538 6.40588 6.90262 6.87659 7.15423 7.20563L9.05584 10H6.75C6.33579 10 6 10.3358 6 10.75C6 11.1643 6.33579 11.5 6.75 11.5H9.25V12.5H6.75C6.33579 12.5 6 12.8358 6 13.25C6 13.6643 6.33579 14 6.75 14H9.25V15.25C9.25 15.6643 9.58579 16 10 16C10.4142 16 10.75 15.6643 10.75 15.25V14H13.25C13.6642 14 14 13.6643 14 13.25C14 12.8358 13.6642 12.5 13.25 12.5H10.75V11.5H13.25C13.6642 11.5 14 11.1643 14 10.75C14 10.3358 13.6642 10 13.25 10H10.9442L12.8458 7.20563C13.0974 6.87659 13.0346 6.40588 12.7056 6.15427C12.3766 5.90266 11.9058 5.96542 11.6542 6.29445L10 8.76537L8.34577 6.29445Z" fill="black"/>
</svg>

<svg xmlns="http://www.w3.org/2000/svg" viewBox="0 0 20 20" fill="currentColor" aria-hidden="true" data-slot="icon">
  <path fill-rule="evenodd" d="M4.5 2A1.5 1.5 0 0 0 3 3.5v13A1.5 1.5 0 0 0 4.5 18h11a1.5 1.5 0 0 0 1.5-1.5V7.621a1.5 1.5 0 0 0-.44-1.06l-4.12-4.122A1.5 1.5 0 0 0 11.378 2H4.5Zm3.846 4.294a.75.75 0 0 0-1.192.912L9.056 10H6.75a.75.75 0 0 0 0 1.5h2.5v1h-2.5a.75.75 0 0 0 0 1.5h2.5v1.25a.75.75 0 1 0 1.5 0V14h2.5a.75.75 0 1 0 0-1.5h-2.5v-1h2.5a.75.75 0 1 0 0-1.5h-2.306l1.902-2.794a.75.75 0 0 0-1.192-.912L10 8.765l-1.654-2.47Z" clip-rule="evenodd"/>
</svg>
